flaticon/gastronomy/risotto.svg

<svg xmlns="http://www.w3.org/2000/svg" width="32" height="32" viewBox="0 0 24 24">
    <path d="M 23.914062 14.816406 C 23.78125 14.558594 23.519531 14.398438 23.226562 14.398438 L 22.285156 14.398438 C 22.183594 14.195312 22.039062 14.019531 21.847656 13.890625 C 21.71875 13.800781 21.648438 13.667969 21.660156 13.535156 C 21.675781 13.375 21.667969 13.230469 21.628906 13.105469 C 21.492188 12.667969 21.121094 12.316406 20.675781 12.210938 C 20.625 12.199219 20.566406 12.191406 20.507812 12.1875 C 20.347656 11.75 19.933594 11.4375 19.445312 11.433594 C 19.371094 10.992188 19.078125 10.625 18.683594 10.445312 C 18.683594 10.378906 18.675781 10.316406 18.65625 10.25 L 18.324219 9.097656 C 18.265625 8.890625 18.132812 8.722656 17.945312 8.617188 C 17.757812 8.515625 17.542969 8.492188 17.335938 8.546875 L 16.183594 8.878906 C 15.980469 8.9375 15.808594 9.074219 15.707031 9.261719 C 15.621094 9.410156 15.589844 9.582031 15.613281 9.746094 C 15.191406 9.726562 14.777344 9.710938 14.375 9.707031 C 14.238281 8.964844 13.585938 8.402344 12.804688 8.402344 C 11.996094 8.402344 11.328125 9.011719 11.226562 9.796875 C 10.871094 9.820312 10.515625 9.851562 10.171875 9.886719 L 10.175781 9.878906 C 10.445312 9.578125 10.421875 9.113281 10.121094 8.839844 L 9.730469 8.488281 C 9.429688 8.214844 8.960938 8.242188 8.691406 8.542969 L 7.058594 10.355469 C 6.703125 10.425781 6.359375 10.503906 6.027344 10.582031 C 6.027344 10.492188 6.019531 10.40625 5.992188 10.320312 C 5.929688 10.113281 5.789062 9.949219 5.601562 9.847656 L 4.539062 9.292969 C 4.347656 9.191406 4.132812 9.171875 3.929688 9.238281 C 3.726562 9.300781 3.558594 9.441406 3.460938 9.628906 L 2.902344 10.691406 C 2.714844 11.046875 2.828125 11.480469 3.144531 11.707031 C 3.144531 11.753906 3.144531 11.804688 3.152344 11.851562 C 3.171875 11.992188 3.097656 12.117188 3.035156 12.195312 C 2.90625 12.351562 2.742188 12.417969 2.695312 12.417969 C 2.527344 12.425781 2.378906 12.496094 2.257812 12.625 C 2.042969 12.859375 1.980469 13.226562 1.960938 13.464844 C 1.683594 13.628906 1.238281 13.925781 1.21875 14.398438 L 0.769531 14.398438 C 0.480469 14.398438 0.21875 14.558594 0.0859375 14.816406 C -0.046875 15.074219 -0.0234375 15.382812 0.144531 15.617188 L 0.191406 15.683594 L 2.285156 16.945312 C 2.382812 17.109375 2.445312 17.339844 2.507812 17.566406 C 2.652344 18.085938 2.851562 18.796875 3.609375 18.796875 L 20.402344 18.796875 C 21.164062 18.796875 21.359375 18.085938 21.503906 17.566406 C 21.566406 17.339844 21.632812 17.109375 21.726562 16.945312 L 23.808594 15.683594 L 23.855469 15.617188 C 24.023438 15.382812 24.046875 15.074219 23.914062 14.816406 Z M 17.558594 9.316406 L 17.886719 10.46875 L 16.734375 10.800781 L 16.40625 9.648438 Z M 12.804688 9.203125 C 13.242188 9.203125 13.59375 9.550781 13.605469 9.984375 L 13.597656 10.066406 C 13.585938 10.21875 13.53125 10.359375 13.445312 10.476562 C 13.4375 10.484375 13.433594 10.492188 13.425781 10.5 C 13.402344 10.527344 13.378906 10.554688 13.355469 10.582031 C 13.335938 10.597656 13.316406 10.613281 13.300781 10.625 C 13.28125 10.640625 13.261719 10.65625 13.242188 10.671875 C 13.214844 10.6875 13.183594 10.703125 13.15625 10.71875 C 13.140625 10.726562 13.125 10.734375 13.109375 10.738281 C 13.074219 10.753906 13.039062 10.765625 13 10.773438 C 12.988281 10.777344 12.976562 10.78125 12.964844 10.785156 C 12.914062 10.796875 12.859375 10.800781 12.808594 10.800781 C 12.753906 10.800781 12.703125 10.792969 12.65625 10.785156 C 12.628906 10.78125 12.601562 10.769531 12.574219 10.761719 C 12.554688 10.757812 12.535156 10.75 12.519531 10.746094 C 12.484375 10.730469 12.449219 10.714844 12.417969 10.695312 C 12.410156 10.691406 12.402344 10.6875 12.394531 10.683594 C 12.355469 10.660156 12.324219 10.632812 12.289062 10.605469 C 12.289062 10.605469 12.285156 10.601562 12.285156 10.601562 C 12.144531 10.476562 12.046875 10.304688 12.019531 10.109375 L 12.015625 10.070312 C 12.011719 10.046875 12.007812 10.023438 12.007812 10 C 12.007812 9.5625 12.367188 9.203125 12.804688 9.203125 Z M 9.242188 9.125 L 9.539062 9.394531 L 8.964844 10.027344 L 7.933594 11.175781 L 7.636719 10.90625 Z M 4.167969 10 L 5.230469 10.558594 L 4.671875 11.621094 L 4.628906 11.597656 L 3.609375 11.0625 Z M 2.429688 14.121094 C 2.574219 14.039062 2.765625 13.925781 2.753906 13.667969 C 2.746094 13.507812 2.785156 13.304688 2.824219 13.210938 C 3.113281 13.164062 3.425781 12.976562 3.648438 12.707031 C 3.796875 12.53125 3.890625 12.335938 3.933594 12.132812 L 4.300781 12.328125 C 4.304688 12.328125 4.308594 12.328125 4.308594 12.332031 C 4.359375 12.355469 4.414062 12.375 4.46875 12.390625 C 4.488281 12.394531 4.507812 12.398438 4.527344 12.402344 C 4.566406 12.410156 4.605469 12.414062 4.640625 12.414062 C 4.652344 12.417969 4.660156 12.417969 4.671875 12.417969 C 4.683594 12.417969 4.691406 12.414062 4.703125 12.414062 C 4.769531 12.410156 4.839844 12.402344 4.902344 12.382812 C 4.90625 12.382812 4.910156 12.382812 4.910156 12.382812 C 5.007812 12.351562 5.09375 12.304688 5.171875 12.242188 C 5.175781 12.242188 5.179688 12.238281 5.183594 12.234375 C 5.210938 12.210938 5.234375 12.183594 5.261719 12.15625 C 5.269531 12.144531 5.285156 12.136719 5.292969 12.125 C 5.308594 12.105469 5.316406 12.085938 5.332031 12.070312 C 5.347656 12.042969 5.367188 12.019531 5.382812 11.992188 L 5.636719 11.503906 C 6.03125 11.398438 6.441406 11.300781 6.871094 11.207031 C 6.871094 11.210938 6.875 11.210938 6.875 11.214844 C 6.890625 11.246094 6.910156 11.277344 6.929688 11.308594 C 6.9375 11.320312 6.941406 11.332031 6.949219 11.34375 C 6.980469 11.382812 7.015625 11.421875 7.054688 11.457031 L 7.445312 11.808594 C 7.480469 11.84375 7.519531 11.871094 7.5625 11.894531 C 7.5625 11.898438 7.5625 11.898438 7.566406 11.898438 C 7.648438 11.945312 7.738281 11.976562 7.828125 11.988281 C 7.832031 11.992188 7.839844 11.992188 7.84375 11.992188 C 7.875 11.996094 7.90625 12 7.9375 12 C 7.941406 12 7.949219 11.996094 7.953125 11.996094 C 7.960938 11.996094 7.96875 12 7.976562 12 C 8 11.996094 8.023438 11.992188 8.046875 11.988281 C 8.0625 11.984375 8.082031 11.984375 8.097656 11.980469 C 8.132812 11.972656 8.164062 11.960938 8.195312 11.949219 C 8.210938 11.945312 8.226562 11.941406 8.238281 11.933594 C 8.269531 11.921875 8.300781 11.902344 8.332031 11.882812 C 8.34375 11.875 8.355469 11.867188 8.371094 11.859375 C 8.402344 11.835938 8.433594 11.804688 8.464844 11.773438 C 8.472656 11.769531 8.476562 11.765625 8.484375 11.757812 L 9.363281 10.78125 C 9.992188 10.699219 10.648438 10.636719 11.320312 10.585938 C 11.347656 10.648438 11.378906 10.710938 11.410156 10.769531 C 11.421875 10.785156 11.425781 10.800781 11.4375 10.816406 C 11.46875 10.871094 11.507812 10.925781 11.546875 10.976562 C 11.558594 10.992188 11.574219 11.011719 11.589844 11.027344 C 11.632812 11.078125 11.671875 11.125 11.71875 11.167969 C 11.726562 11.175781 11.734375 11.179688 11.738281 11.183594 C 11.824219 11.261719 11.921875 11.328125 12.023438 11.386719 C 12.058594 11.410156 12.097656 11.429688 12.136719 11.449219 C 12.175781 11.46875 12.214844 11.484375 12.257812 11.496094 C 12.308594 11.515625 12.363281 11.535156 12.417969 11.546875 C 12.453125 11.554688 12.484375 11.566406 12.519531 11.570312 C 12.613281 11.589844 12.707031 11.601562 12.804688 11.601562 C 12.902344 11.601562 13 11.589844 13.09375 11.570312 C 13.132812 11.566406 13.171875 11.554688 13.207031 11.542969 C 13.257812 11.53125 13.308594 11.515625 13.355469 11.496094 C 13.40625 11.480469 13.453125 11.460938 13.496094 11.4375 C 13.527344 11.421875 13.558594 11.40625 13.585938 11.390625 C 13.851562 11.238281 14.070312 11.015625 14.210938 10.746094 C 14.214844 10.738281 14.222656 10.730469 14.226562 10.722656 C 14.257812 10.65625 14.289062 10.585938 14.3125 10.515625 C 14.316406 10.511719 14.316406 10.507812 14.320312 10.5 C 14.808594 10.507812 15.316406 10.527344 15.832031 10.558594 L 15.964844 11.023438 C 15.988281 11.109375 16.03125 11.1875 16.082031 11.257812 C 16.148438 11.355469 16.238281 11.441406 16.347656 11.5 C 16.402344 11.53125 16.460938 11.550781 16.519531 11.570312 C 16.535156 11.574219 16.550781 11.578125 16.570312 11.582031 C 16.613281 11.589844 16.65625 11.597656 16.703125 11.597656 C 16.714844 11.597656 16.722656 11.601562 16.734375 11.601562 C 16.742188 11.601562 16.75 11.597656 16.757812 11.597656 C 16.820312 11.597656 16.882812 11.589844 16.945312 11.570312 C 16.949219 11.570312 16.953125 11.570312 16.953125 11.570312 L 18.105469 11.238281 C 18.175781 11.21875 18.238281 11.1875 18.296875 11.152344 C 18.300781 11.152344 18.300781 11.152344 18.300781 11.152344 C 18.511719 11.222656 18.660156 11.417969 18.660156 11.648438 C 18.660156 12.027344 19.058594 12.234375 19.429688 12.234375 C 19.621094 12.234375 19.773438 12.386719 19.773438 12.574219 C 19.773438 12.617188 19.785156 12.976562 20.234375 12.976562 C 20.285156 12.976562 20.4375 12.980469 20.492188 12.992188 C 20.664062 13.03125 20.8125 13.171875 20.863281 13.335938 C 20.863281 13.34375 20.871094 13.378906 20.863281 13.457031 C 20.828125 13.800781 20.960938 14.148438 21.214844 14.398438 L 6.929688 14.398438 C 6.972656 14.34375 7.007812 14.28125 7.015625 14.207031 L 7.082031 13.65625 C 7.109375 13.4375 6.957031 13.234375 6.734375 13.207031 C 6.515625 13.179688 6.316406 13.335938 6.289062 13.554688 L 6.222656 14.105469 C 6.207031 14.214844 6.242188 14.320312 6.300781 14.398438 L 2.039062 14.398438 C 2.085938 14.34375 2.191406 14.257812 2.429688 14.121094 Z M 21.164062 16.351562 L 21.117188 16.417969 C 20.917969 16.699219 20.820312 17.046875 20.734375 17.351562 C 20.59375 17.863281 20.523438 17.996094 20.402344 17.996094 L 3.613281 17.996094 C 3.488281 17.996094 3.421875 17.863281 3.28125 17.351562 C 3.195312 17.046875 3.097656 16.699219 2.898438 16.417969 L 2.847656 16.351562 L 0.933594 15.199219 L 15.867188 15.199219 C 15.867188 15.199219 16.273438 15.210938 16.3125 15.199219 L 23.070312 15.199219 Z M 21.164062 16.351562"/>
    <path d="M6.339844 11.761719C6.160156 11.640625 5.910156 11.6875 5.785156 11.867188L5.472656 12.328125C5.347656 12.507812 5.394531 12.757812 5.578125 12.882812 5.648438 12.929688 5.726562 12.953125 5.804688 12.953125 5.929688 12.953125 6.058594 12.890625 6.132812 12.777344L6.445312 12.320312C6.570312 12.136719 6.523438 11.886719 6.339844 11.761719zM4.945312 13.152344L4.476562 12.859375C4.285156 12.742188 4.039062 12.800781 3.925781 12.988281 3.808594 13.175781 3.867188 13.421875 4.054688 13.539062L4.527344 13.832031C4.59375 13.871094 4.664062 13.890625 4.734375 13.890625 4.871094 13.890625 5 13.824219 5.078125 13.699219 5.191406 13.511719 5.132812 13.265625 4.945312 13.152344zM7.386719 13.089844L7.9375 13.132812C7.949219 13.132812 7.960938 13.132812 7.96875 13.132812 8.175781 13.132812 8.351562 12.976562 8.367188 12.765625 8.386719 12.542969 8.21875 12.351562 8 12.335938L7.449219 12.292969C7.226562 12.269531 7.035156 12.441406 7.019531 12.660156 7 12.882812 7.164062 13.074219 7.386719 13.089844zM9.492188 13.265625L9.179688 13.722656C9.054688 13.90625 9.101562 14.152344 9.285156 14.277344 9.351562 14.324219 9.429688 14.347656 9.507812 14.347656 9.636719 14.347656 9.761719 14.285156 9.839844 14.171875L10.152344 13.714844C10.277344 13.53125 10.230469 13.28125 10.046875 13.160156 9.863281 13.035156 9.617188 13.082031 9.492188 13.265625zM8.953125 12.140625L9.425781 12.433594C9.492188 12.472656 9.566406 12.492188 9.636719 12.492188 9.769531 12.492188 9.902344 12.425781 9.976562 12.304688 10.09375 12.113281 10.035156 11.871094 9.847656 11.753906L9.375 11.460938C9.1875 11.34375 8.941406 11.402344 8.824219 11.59375 8.707031 11.78125 8.765625 12.027344 8.953125 12.140625zM18.429688 13.890625C18.558594 13.890625 18.683594 13.828125 18.761719 13.714844L19.074219 13.257812C19.199219 13.074219 19.152344 12.824219 18.96875 12.699219 18.789062 12.578125 18.539062 12.621094 18.414062 12.804688L18.101562 13.265625C17.976562 13.445312 18.023438 13.695312 18.207031 13.820312 18.273438 13.867188 18.355469 13.890625 18.429688 13.890625zM16.867188 12.339844L17.339844 12.632812C17.402344 12.671875 17.476562 12.691406 17.546875 12.691406 17.683594 12.691406 17.8125 12.625 17.886719 12.5 18.003906 12.3125 17.945312 12.066406 17.757812 11.953125L17.285156 11.660156C17.097656 11.542969 16.851562 11.601562 16.738281 11.789062 16.621094 11.976562 16.679688 12.222656 16.867188 12.339844zM11.203125 12.152344L11.757812 12.195312C11.769531 12.195312 11.78125 12.195312 11.789062 12.195312 11.996094 12.195312 12.171875 12.039062 12.1875 11.828125 12.203125 11.609375 12.039062 11.414062 11.820312 11.398438L11.265625 11.355469C11.042969 11.339844 10.855469 11.503906 10.835938 11.722656 10.820312 11.945312 10.984375 12.136719 11.203125 12.152344zM11.601562 13.070312C11.390625 13.011719 11.171875 13.136719 11.113281 13.351562 11.054688 13.566406 11.183594 13.785156 11.394531 13.839844L11.929688 13.984375C11.964844 13.996094 12 14 12.035156 14 12.210938 14 12.375 13.882812 12.421875 13.703125 12.480469 13.488281 12.351562 13.269531 12.140625 13.214844zM13.726562 13.488281C13.777344 13.660156 13.9375 13.765625 14.105469 13.765625 14.144531 13.765625 14.1875 13.761719 14.226562 13.75L14.757812 13.582031C14.964844 13.511719 15.082031 13.289062 15.015625 13.078125 14.949219 12.867188 14.726562 12.75 14.515625 12.816406L13.984375 12.984375C13.773438 13.054688 13.660156 13.277344 13.726562 13.488281zM13.234375 12.800781C13.335938 12.800781 13.4375 12.761719 13.515625 12.683594L13.910156 12.292969C14.066406 12.136719 14.066406 11.882812 13.910156 11.726562 13.753906 11.570312 13.503906 11.570312 13.347656 11.726562L12.953125 12.117188C12.796875 12.273438 12.796875 12.523438 12.949219 12.679688 13.03125 12.761719 13.132812 12.800781 13.234375 12.800781zM16.046875 13.4375C16.09375 13.617188 16.253906 13.734375 16.433594 13.734375 16.464844 13.734375 16.5 13.730469 16.535156 13.722656 16.75 13.667969 16.875 13.449219 16.820312 13.234375L16.679688 12.695312C16.621094 12.484375 16.402344 12.355469 16.1875 12.414062 15.976562 12.46875 15.847656 12.6875 15.90625 12.902344zM14.71875 11.554688L15.269531 11.597656C15.28125 11.597656 15.292969 11.597656 15.300781 11.597656 15.507812 11.597656 15.683594 11.441406 15.699219 11.230469 15.71875 11.011719 15.554688 10.816406 15.332031 10.800781L14.777344 10.757812C14.5625 10.742188 14.367188 10.90625 14.347656 11.125 14.332031 11.34375 14.496094 11.539062 14.71875 11.554688zM9.6875 8.222656C9.742188 8.425781 9.878906 8.597656 10.066406 8.699219 10.1875 8.769531 10.320312 8.800781 10.453125 8.800781 10.527344 8.800781 10.601562 8.792969 10.675781 8.769531L11.828125 8.441406C12.03125 8.382812 12.203125 8.246094 12.304688 8.058594 12.410156 7.871094 12.433594 7.65625 12.375 7.453125L12.046875 6.300781C11.988281 6.09375 11.851562 5.925781 11.664062 5.820312 11.476562 5.714844 11.261719 5.691406 11.054688 5.75L9.902344 6.082031C9.699219 6.140625 9.527344 6.273438 9.425781 6.460938 9.320312 6.648438 9.296875 6.863281 9.355469 7.070312zM11.277344 6.519531L11.605469 7.671875 10.453125 8 10.125 6.847656zM10.453125 8.003906L10.453125 8.003906M6.410156 10C7.292969 10 8.007812 9.285156 8.007812 8.402344 8.007812 7.519531 7.292969 6.804688 6.410156 6.804688 5.527344 6.804688 4.8125 7.519531 4.8125 8.402344 4.8125 9.285156 5.527344 10 6.410156 10zM6.410156 7.601562C6.851562 7.601562 7.210938 7.960938 7.210938 8.402344 7.210938 8.84375 6.851562 9.203125 6.410156 9.203125 5.96875 9.203125 5.609375 8.84375 5.609375 8.402344 5.609375 7.960938 5.96875 7.601562 6.410156 7.601562zM14.117188 8.746094C14.1875 8.929688 14.320312 9.078125 14.5 9.160156 14.597656 9.207031 14.703125 9.230469 14.808594 9.230469 14.894531 9.230469 14.980469 9.214844 15.0625 9.183594L15.554688 9.003906C15.742188 8.9375 15.886719 8.800781 15.972656 8.621094 16.054688 8.445312 16.0625 8.246094 15.996094 8.058594L15.128906 5.6875C15.058594 5.503906 14.925781 5.355469 14.746094 5.273438 14.570312 5.191406 14.367188 5.179688 14.183594 5.25L13.691406 5.429688C13.503906 5.496094 13.359375 5.632812 13.273438 5.8125 13.191406 5.988281 13.183594 6.1875 13.25 6.375zM14.398438 6.019531L15.222656 8.273438 14.847656 8.410156 14.023438 6.160156zM20.003906 16.398438L7.601562 16.398438C7.382812 16.398438 7.203125 16.578125 7.203125 16.796875 7.203125 17.019531 7.382812 17.195312 7.601562 17.195312L20.003906 17.195312C20.222656 17.195312 20.402344 17.019531 20.402344 16.796875 20.402344 16.578125 20.222656 16.398438 20.003906 16.398438zM5.640625 16.398438L4.011719 16.398438C3.789062 16.398438 3.613281 16.578125 3.613281 16.796875 3.613281 17.019531 3.789062 17.195312 4.011719 17.195312L5.640625 17.195312C5.859375 17.195312 6.039062 17.019531 6.039062 16.796875 6.039062 16.578125 5.859375 16.398438 5.640625 16.398438zM5.640625 16.398438"/>
</svg>

<svg xmlns="http://www.w3.org/2000/svg" width="32" height="32" viewBox="0 0 24 24">
    <path d="M23.914 14.816a.768.768 0 0 0-.687-.418h-.942a1.307 1.307 0 0 0-.437-.507c-.13-.09-.2-.223-.188-.356.016-.16.008-.305-.031-.43a1.341 1.341 0 0 0-.953-.894c-.051-.012-.11-.02-.168-.024a1.143 1.143 0 0 0-1.063-.753 1.333 1.333 0 0 0-.761-.989.674.674 0 0 0-.028-.195l-.332-1.152a.791.791 0 0 0-.379-.48.826.826 0 0 0-.61-.071l-1.151.332a.79.79 0 0 0-.477.383.756.756 0 0 0-.094.484c-.422-.02-.836-.035-1.238-.039a1.598 1.598 0 0 0-1.57-1.305c-.809 0-1.477.61-1.578 1.395-.356.023-.711.055-1.055.09l.004-.008a.74.74 0 0 0-.055-1.04l-.39-.35a.735.735 0 0 0-1.04.054L7.06 10.355c-.356.07-.7.149-1.032.227a.797.797 0 0 0-.426-.734L4.54 9.293a.773.773 0 0 0-.61-.055.79.79 0 0 0-.468.39l-.559 1.063a.796.796 0 0 0 .243 1.016c0 .047 0 .098.007.145.02.14-.054.265-.117.343-.129.157-.293.223-.34.223a.627.627 0 0 0-.437.207c-.215.234-.278.602-.297.84-.277.164-.723.46-.742.933h-.45a.769.769 0 0 0-.625 1.219l.047.067 2.094 1.261c.098.164.16.395.223.621.144.52.344 1.23 1.101 1.23h16.793c.762 0 .957-.71 1.102-1.23.062-.226.129-.457.223-.62l2.082-1.262.046-.067a.769.769 0 0 0 .06-.8zm-6.355-5.5l.328 1.153-1.153.332-.328-1.153zm-4.754-.113a.8.8 0 0 1 .8.781l-.007.082a.795.795 0 0 1-.153.41c-.008.008-.011.016-.02.024l-.07.082-.054.043-.059.047-.086.047c-.015.008-.031.015-.047.02a.511.511 0 0 1-.109.034l-.035.012a.707.707 0 0 1-.156.016.913.913 0 0 1-.153-.016c-.027-.004-.054-.015-.082-.023-.02-.004-.039-.012-.054-.016-.036-.016-.07-.031-.102-.05l-.023-.012c-.04-.024-.07-.051-.106-.079l-.004-.003a.808.808 0 0 1-.265-.493l-.004-.039c-.004-.023-.008-.047-.008-.07a.8.8 0 0 1 .797-.797zm-3.563-.078l.297.27-.574.632-1.031 1.149-.297-.27zM4.168 10l1.062.559-.558 1.062-.043-.023-1.02-.536zM2.43 14.121c.144-.082.336-.195.324-.453-.008-.16.031-.363.07-.457.29-.047.602-.234.824-.504.149-.176.243-.371.286-.574l.367.195a1.119 1.119 0 0 0 .168.063l.058.011c.04.008.078.012.114.012.011.004.02.004.03.004.013 0 .02-.004.032-.004a.848.848 0 0 0 .2-.031h.007a.807.807 0 0 0 .262-.14c.004 0 .008-.005.012-.009.027-.023.05-.05.078-.078.008-.011.023-.02.031-.031.016-.02.023-.04.039-.055.016-.027.035-.05.05-.078l.255-.488c.394-.106.804-.203 1.234-.297 0 .004.004.004.004.008.016.031.035.062.055.094.008.011.011.023.02.035.03.039.066.078.105.113l.39.352a.503.503 0 0 0 .117.086c0 .003 0 .003.004.003a.72.72 0 0 0 .278.094c.031.004.062.008.093.008l.016-.004c.008 0 .016.004.024.004l.07-.012c.015-.004.035-.004.05-.008a.714.714 0 0 0 .098-.03c.016-.005.032-.009.043-.016a.552.552 0 0 0 .094-.051c.012-.008.023-.016.04-.024.03-.023.062-.054.093-.086.008-.003.012-.007.02-.015l.878-.977a36.46 36.46 0 0 1 1.957-.195c.028.062.059.125.09.184.012.015.016.03.027.046a1.45 1.45 0 0 0 .153.211c.043.051.082.098.129.141.008.008.015.012.02.016.085.078.183.144.284.203a1.052 1.052 0 0 0 .235.11c.05.019.105.038.16.05.035.008.066.02.102.023a1.386 1.386 0 0 0 .687-.027.938.938 0 0 0 .148-.047.759.759 0 0 0 .141-.059c.031-.015.063-.03.09-.046a1.6 1.6 0 0 0 .625-.645c.004-.008.012-.016.016-.023.03-.067.062-.137.085-.207.004-.004.004-.008.008-.016.489.008.996.027 1.512.059l.133.464a.734.734 0 0 0 .117.235.756.756 0 0 0 .266.242c.054.031.113.05.172.07l.05.012a.727.727 0 0 0 .133.016c.012 0 .02.004.031.004.008 0 .016-.004.024-.004a.623.623 0 0 0 .187-.028h.008l1.152-.332c.07-.02.133-.05.192-.086h.004c.21.07.36.266.36.496 0 .38.398.586.769.586a.34.34 0 0 1 .343.34c0 .043.012.403.461.403.051 0 .203.003.258.015.172.04.32.18.371.344 0 .008.008.043 0 .121-.035.344.098.691.352.941H6.93a.374.374 0 0 0 .086-.191l.066-.55a.4.4 0 1 0-.793-.102l-.066.55c-.016.11.02.215.078.293H2.039c.047-.054.152-.14.39-.277zm18.734 2.23l-.047.067c-.199.281-.297.629-.383.934-.14.511-.21.644-.332.644H3.613c-.125 0-.191-.133-.332-.644-.086-.305-.183-.653-.383-.934l-.05-.066-1.914-1.153h14.933s.406.012.445 0h6.758zm0 0"/>
    <path d="M6.34 11.762a.405.405 0 0 0-.555.105l-.312.461a.398.398 0 0 0 .105.555.396.396 0 0 0 .555-.105l.312-.458a.402.402 0 0 0-.105-.558zm0 0M4.945 13.152l-.468-.293a.4.4 0 1 0-.422.68l.472.293a.4.4 0 0 0 .55-.133.399.399 0 0 0-.132-.547zm0 0M7.387 13.09l.55.043h.032a.397.397 0 0 0 .398-.367.397.397 0 0 0-.367-.43l-.55-.043a.394.394 0 0 0-.43.367.394.394 0 0 0 .367.43zm0 0M9.492 13.266l-.312.457a.397.397 0 0 0 .105.554c.067.047.145.07.223.07a.403.403 0 0 0 .332-.175l.312-.457a.397.397 0 0 0-.105-.555.397.397 0 0 0-.555.106zm0 0M8.953 12.14l.473.294a.42.42 0 0 0 .21.058.399.399 0 0 0 .212-.738l-.473-.293a.397.397 0 0 0-.55.133.394.394 0 0 0 .128.547zm0 0M18.43 13.89a.403.403 0 0 0 .332-.175l.312-.457a.401.401 0 0 0-.66-.453l-.312.46a.398.398 0 0 0 .105.555c.066.047.148.07.223.07zm0 0M16.867 12.34l.473.293a.396.396 0 0 0 .547-.133.394.394 0 0 0-.13-.547l-.472-.293a.4.4 0 0 0-.418.68zm0 0M11.203 12.152l.555.043h.031a.397.397 0 0 0 .399-.367.401.401 0 0 0-.368-.43l-.554-.043a.4.4 0 1 0-.063.797zm0 0M11.602 13.07a.397.397 0 0 0-.489.282.396.396 0 0 0 .282.488l.535.144a.4.4 0 0 0 .21-.77zm0 0M13.727 13.488c.05.172.21.278.378.278a.43.43 0 0 0 .122-.016l.53-.168a.405.405 0 0 0 .259-.504.398.398 0 0 0-.5-.262l-.532.168a.402.402 0 0 0-.257.504zm0 0M13.234 12.8c.102 0 .204-.038.282-.116l.394-.391a.4.4 0 0 0 0-.566.396.396 0 0 0-.562 0l-.395.39a.4.4 0 0 0 .281.684zm0 0M16.047 13.438c.047.18.207.296.387.296a.399.399 0 0 0 .387-.5l-.141-.539a.402.402 0 0 0-.492-.28.396.396 0 0 0-.282.487zm0 0M14.719 11.555l.55.043h.032a.397.397 0 0 0 .398-.368.396.396 0 0 0-.367-.43l-.555-.042a.406.406 0 0 0-.43.367.402.402 0 0 0 .372.43zm0 0M9.688 8.223a.77.77 0 0 0 .378.476c.121.07.254.102.387.102a.73.73 0 0 0 .223-.031l1.152-.329a.79.79 0 0 0 .477-.382.783.783 0 0 0 .07-.606l-.328-1.152a.797.797 0 0 0-.383-.48.79.79 0 0 0-.61-.071l-1.152.332a.784.784 0 0 0-.476.379.79.79 0 0 0-.07.61zm1.59-1.703l.327 1.152L10.453 8l-.328-1.152zm-.825 1.484M6.41 10a1.597 1.597 0 1 0 .001-3.194 1.597 1.597 0 0 0 0 3.194zm0-2.398a.802.802 0 0 1 0 1.601.802.802 0 0 1 0-1.601zm0 0M14.117 8.746a.738.738 0 0 0 .945.438l.493-.18a.732.732 0 0 0 .441-.945l-.867-2.371a.738.738 0 0 0-.945-.438l-.493.18a.732.732 0 0 0-.441.945zm.281-2.726l.825 2.253-.375.137-.825-2.25zm0 0M20.004 16.398H7.602a.398.398 0 1 0 0 .797h12.402a.398.398 0 1 0 0-.797zm0 0M5.64 16.398H4.013a.398.398 0 0 0-.399.399c0 .223.176.398.399.398H5.64a.398.398 0 1 0 0-.797zm0 0"/>
</svg>
